X: 94
T: The Silver Spear
B: begged borrowed and stolen
B: ralph
B: steve tunes
M:C
L:1/8
R: reel
Q: 1/4=100
K:D
V:1 
AG|: "D" FA ~A2 BAFA | "D" dfed "G" BcdA | "D" FA ~A2  BAFA | "G" dfed "A" B2 A2 |
"D" FA ~A2 BAFA | "D" dfed "G" Bdef | "Em" ~g3 e "D" ~f3 e |1 "G" dfed "A"   B2 A2 :|2 "G" dfed "A"  Bcde ||
|: "D" faaf    bfaf | "D" gfed "G" Bcde | "D" faaf    bfaf | "G" gfed "A" B2 A2 |
"D" faaf   bfaf | gfed "G" Bdef | "Em" ~g3 e "D" ~f3 e | "G" dfed "A"   B2 A2 :|
% abcbook-tune_id 627e2b1fd0f4895d24b7691e


% abcbook-boost 0
% abcbook-tablature 
% abcbook-transpose 
% abcbook-lastupdated 1662271391283
% abcbook-soundfonts 
% abcbook-repeats 3
% Rhythm Reel
% Titles One title
% Transcriptions Only 1 transcription
% Movement Has lots of stepwise movement
% Movement Has some stepwise movement
% Mode major
% Key D
% Time_signature 4/4
% Has_accompaniment_chords Has chords

